public/images/noto_trophy.svg

<svg width="23" height="23" fill="none" xmlns="http://www.w3.org/2000/svg"><defs><clipPath id="a"><rect rx="0" width="22" height="22" transform="translate(.5 .5)" fill="#fff" fill-opacity="0"/></clipPath></defs><rect rx="0" width="22" height="22" transform="translate(.5 .5)" fill="none"/><g clip-path="url(#a)"><path d="M17.45 10.66c.39-.33 2.7-1.75 3.96-2.95.98-.94 1.37-3.39-.15-4.58-1.97-1.55-3.86.07-3.86.07s-.16-.91-1.32-1.45c-1.44-.68-3.28-.94-4.96-.91-1.64.02-3.15.21-4.48.87-1.2.59-1.27 1.42-1.27 1.42s-1.57-1.5-3.5-.28C-.05 4.07.5 6.52 1.43 7.54c1.2 1.34 2.65 2.02 3.31 2.51.66.49 1.28.96 1.28 1.39 0 .42-.18.51-.25.49-.07-.03-.2-.44-.52-.26-.44.24-.31 1.22.61 1.31.89.09 1.05-.84 1.05-.84l.14-.92 1.46 1.01 1.59 1.32-.04 1.12s-.07.87-.5 1.62c-.42.75-1.1 1.5-1.1 1.5l-.02.68 5.91-.14-.19-.66s-.76-.83-1.22-1.73c-.32-.65-.38-1.3-.38-1.3l-.01-1.61 3.07-1.88s.33.26.28.35c-.05.1-.06 1.06.68 1.41.73.35 1.31-.09 1.24-.7-.07-.61-.44-.4-.56-.31-.12.09-.38.12-.45-.23s.24-.68.64-1.01zM2.35 7.34 1.64 5.2l.85-1.11.96-.28s1.21.91 1.26.98c.04.08.77 1.59.77 1.59l.97 3.5-4.1-2.54zm13.81 2.81c.01-.07.91-3.75.91-3.75 0-.04.62-.33.62-.39s1.15-1.92 1.15-1.92l1.9.07.4 1.89-.96 1.57c.01 0-4.04 2.61-4.02 2.53z" fill="#FEC417"/><path d="M21.54 5.5c-.14-1.67-1.79-2.07-2.47-1.83-.69.24-1.13.69-1.28 1.34-.12.52-.24.87-.38.93-.16.05-.3.03-.3.03s-.03-1.13-.02-1.59c.02-.94.31-1.18.31-1.18s-.06-.32-.19-.49c-.12-.18-.34-.4-.34-.4s.05.45-.18.55c-.22.11-.47-.05-.47-.05l.23.94s-.37 4.7-.4 4.8c-.04.11-1.42 2.5-1.42 2.5s-.8.75-1.18.92c-.39.18-.72.63-2.2.65-1.48.01-2.75-1.16-2.75-1.16l-1.28-1.22-.94-2.77-.14-2.83.06-1.03.04-.43-.07-.21s-.12.12-.34.07c-.23-.06-.32-.35-.32-.35s-.09.14-.1.21c-.02.07-.04.23-.04.23s.24.26.3.62c.05.37-.02 1.89-.28 1.85-.26-.03-.18-1.31-1.17-1.79-.86-.43-2.15-.3-2.67.76-.53 1.07-.14 2.32 1.5 3.49 1.64 1.17 3.38 2.16 3.66 3.09.33 1.12-.42 1.78-.42 1.78s.55-.07.81-.66c.09-.19.12-.46.14-.62.62.8 1.44 1.49 2.53 1.82.42.14.88.21 1.53.21h.28c.75-.03 1.4-.17 2.03-.48.84-.4 1.5-.99 2.01-1.67-.02.16.08.56.27.88.33.56.89.59.89.59s-.77-.45-.61-1.53c.15-1.08.87-1.47 1.95-2.17 1.09-.69 3.56-2.12 3.42-3.8zM3.82 7.87c-.49-.34-1.34-.8-1.7-1.5-.46-.93-.08-2.06.81-2.19 1.85-.29 1.88 2 2 2.28.13.28.48.3.48.3s.01.15.06.45v.03l.01.02c.03.21.08.46.15.75v.02a11.584 11.584 0 0 0 .43 1.41c-.18-.12-1.21-.83-2.24-1.57zm16.76-1.29c-.38.63-1.17 1.09-1.74 1.48-.75.51-1.85 1.27-2.17 1.48.08-.19.14-.38.2-.56a7 7 0 0 0 .26-.87c.18-.84.21-1.58.21-1.58s.37.1.59-.14c.23-.25.31-1 .52-1.36.33-.56 1-1.14 1.99-.44.58.41.6 1.25.14 1.99zm-9.71 7.67 1.02-.02s.02 1.11.18 1.94c.16.83.38 1.75.38 1.75s-2.07.69-2.06-.06c.01-.74.32-2.2.32-2.2s.19-1.73.16-1.41z" fill="#FFA828"/><path d="M9.17 2.72s1.13-.12 2.18-.11c1.05.02 2.13.23 2.13.23s-.06 3.51-.25 5.49c-.19 1.97-.94 3.45-1.14 3.87-.19.41-.33.62-.33.62l-1.02-.11-1.75-3.52.18-6.47z" fill="#FFA828"/><path d="M7.81 3.25s.32-.16.78-.33c.42-.16.8-.21.8-.21s.01 2.33.05 4c.03 1.41.56 3.74.81 4.36.25.62.72 1.57.72 1.57s-.93-.13-1.5-.86c-.3-.38-1.7-3.32-1.75-5.27-.05-1.94.14-3.31.09-3.26z" fill="#FFEFAB"/><path d="M7.29 3.52c-.04.1-.29 2.1.11 3.96.39 1.87.98 3.14 1.37 3.64.35.45.57.66.7.66.12 0-.53-1.54-.83-2.75-.3-1.21-.46-2.66-.49-3.37-.04-.72-.07-2.57-.07-2.57s-.35.16-.43.21l-.36.22z" fill="#FFFCFD"/><path d="M9.58 17.79s.68-1.12.83-1.96c.14-.85.22-1.59.22-1.59l.42.01s-.04 1.23-.09 2.06c-.05.82-.19 1.64-.19 1.64l-1.19-.16z" fill="#FFEFAB"/><path d="M10.11 13.55s.31-.32 1.19-.32c.87 0 1.25.34 1.25.34l.02 1.08s-.58-.18-1.29-.19c-.59-.01-1.22.21-1.22.21l.05-1.12zM6.28 2.82c.15-.14 1.56-1.2 4.91-1.23 3.6-.03 4.95 1.01 5.03 1.07.1.06.21.35.16.48-.05.13-.14.17-.41.06-.28-.11-1.61-1.08-4.83-.98-3.09.09-4.4 1.03-4.54 1.11-.11.06-.31.08-.41-.05-.1-.12 0-.37.09-.46zm10.1.75c-.41.03-.13 3.36-1 5.44-.94 2.23-2.14 2.87-2.09 3 .05.12 1.22-.23 1.96-1.28.68-.97 1.1-1.83 1.29-2.97.19-1.15.3-4.23-.16-4.19zM6.2 3.95c-.11-.01 0 1.65-.17 2.38-.06.28-.22.34-.24.41-.02.06.35 2.19.96 3.13.58.91 1.75 2.04 1.94 1.85.19-.19-.85-.83-1.54-2.21a7.63 7.63 0 0 1-.83-3.36c-.01-.91.1-2.19-.12-2.2z" fill="#D1701C"/><path d="m15.59 20.25-.01-2.57H7.34c.03 0 .01 2.09 0 2.58H6.17v1.86h10.47v-1.86l-1.05-.01z" fill="#865C50"/><path d="M9.99 19.03c-.21-.01-.44.03-.45.28-.01.25-.01.98-.01 1.12 0 .14.11.26.4.27.28.01 2.95 0 3.13 0 .19 0 .29-.16.29-.32.01-.17-.01-.85-.01-1.03 0-.31-.27-.31-.46-.31l-2.89-.01z" fill="#FCC219"/></g></svg>

<svg width="23.000000" height="23.000000" viewBox="0 0 23 23" fill="none" xmlns="http://www.w3.org/2000/svg" xmlns:xlink="http://www.w3.org/1999/xlink">
	<desc>
			Created with Pixso.
	</desc>
	<defs>
		<clipPath id="clip260_2320">
			<rect id="noto:trophy" rx="0.000000" width="22.000000" height="22.000000" transform="translate(0.500000 0.500000)" fill="white" fill-opacity="0"/>
		</clipPath>
	</defs>
	<rect id="noto:trophy" rx="0.000000" width="22.000000" height="22.000000" transform="translate(0.500000 0.500000)" fill="#FFFFFF" fill-opacity="0"/>
	<g clip-path="url(#clip260_2320)">
		<path id="Vector" d="M17.45 10.66C17.84 10.33 20.15 8.91 21.41 7.71C22.39 6.77 22.78 4.32 21.26 3.13C19.29 1.58 17.4 3.2 17.4 3.2C17.4 3.2 17.24 2.29 16.08 1.75C14.64 1.07 12.8 0.81 11.12 0.84C9.48 0.86 7.97 1.05 6.64 1.71C5.44 2.3 5.37 3.13 5.37 3.13C5.37 3.13 3.8 1.63 1.87 2.85C-0.05 4.07 0.5 6.52 1.43 7.54C2.63 8.88 4.08 9.56 4.74 10.05C5.4 10.54 6.02 11.01 6.02 11.44C6.02 11.86 5.84 11.95 5.77 11.93C5.7 11.9 5.57 11.49 5.25 11.67C4.81 11.91 4.94 12.89 5.86 12.98C6.75 13.07 6.91 12.14 6.91 12.14L7.05 11.22L8.51 12.23L10.1 13.55L10.06 14.67C10.06 14.67 9.99 15.54 9.56 16.29C9.14 17.04 8.46 17.79 8.46 17.79L8.44 18.47L14.35 18.33L14.16 17.67C14.16 17.67 13.4 16.84 12.94 15.94C12.62 15.29 12.56 14.64 12.56 14.64L12.55 13.03L15.62 11.15C15.62 11.15 15.95 11.41 15.9 11.5C15.85 11.6 15.84 12.56 16.58 12.91C17.31 13.26 17.89 12.82 17.82 12.21C17.75 11.6 17.38 11.81 17.26 11.9C17.14 11.99 16.88 12.02 16.81 11.67C16.74 11.32 17.05 10.99 17.45 10.66ZM2.35 7.34L1.64 5.2L2.49 4.09L3.45 3.81C3.45 3.81 4.66 4.72 4.71 4.79C4.75 4.87 5.48 6.38 5.48 6.38L6.45 9.88L2.35 7.34ZM16.16 10.15C16.17 10.08 17.07 6.4 17.07 6.4C17.07 6.36 17.69 6.07 17.69 6.01C17.69 5.95 18.84 4.09 18.84 4.09L20.74 4.16L21.14 6.05L20.18 7.62C20.19 7.62 16.14 10.23 16.16 10.15Z" fill="#FEC417" fill-opacity="1.000000" fill-rule="nonzero"/>
		<path id="Vector" d="M21.54 5.5C21.4 3.83 19.75 3.43 19.07 3.67C18.38 3.91 17.94 4.36 17.79 5.01C17.67 5.53 17.55 5.88 17.41 5.94C17.25 5.99 17.11 5.97 17.11 5.97C17.11 5.97 17.08 4.84 17.09 4.38C17.11 3.44 17.4 3.2 17.4 3.2C17.4 3.2 17.34 2.88 17.21 2.71C17.09 2.53 16.87 2.31 16.87 2.31C16.87 2.31 16.92 2.76 16.69 2.86C16.47 2.97 16.22 2.81 16.22 2.81L16.45 3.75C16.45 3.75 16.08 8.45 16.05 8.55C16.01 8.66 14.63 11.05 14.63 11.05C14.63 11.05 13.83 11.8 13.45 11.97C13.06 12.15 12.73 12.6 11.25 12.62C9.77 12.63 8.5 11.46 8.5 11.46L7.22 10.24L6.28 7.47L6.14 4.64L6.2 3.61L6.24 3.18L6.17 2.97C6.17 2.97 6.05 3.09 5.83 3.04C5.6 2.98 5.51 2.69 5.51 2.69C5.51 2.69 5.42 2.83 5.41 2.9C5.39 2.97 5.37 3.13 5.37 3.13C5.37 3.13 5.61 3.39 5.67 3.75C5.72 4.12 5.65 5.64 5.39 5.6C5.13 5.57 5.21 4.29 4.22 3.81C3.36 3.38 2.07 3.51 1.55 4.57C1.02 5.64 1.41 6.89 3.05 8.06C4.69 9.23 6.43 10.22 6.71 11.15C7.04 12.27 6.29 12.93 6.29 12.93C6.29 12.93 6.84 12.86 7.1 12.27C7.19 12.08 7.22 11.81 7.24 11.65C7.86 12.45 8.68 13.14 9.77 13.47C10.19 13.61 10.65 13.68 11.3 13.68C11.39 13.68 11.49 13.68 11.58 13.68C12.33 13.65 12.98 13.51 13.61 13.2C14.45 12.8 15.11 12.21 15.62 11.53C15.6 11.69 15.7 12.09 15.89 12.41C16.22 12.97 16.78 13 16.78 13C16.78 13 16.01 12.55 16.17 11.47C16.32 10.39 17.04 10 18.12 9.3C19.21 8.61 21.68 7.18 21.54 5.5ZM3.82 7.87C3.33 7.53 2.48 7.07 2.12 6.37C1.66 5.44 2.04 4.31 2.93 4.18C4.78 3.89 4.81 6.18 4.93 6.46C5.06 6.74 5.41 6.76 5.41 6.76C5.41 6.76 5.42 6.91 5.47 7.21C5.47 7.22 5.47 7.23 5.47 7.24L5.48 7.26C5.51 7.47 5.56 7.72 5.63 8.01L5.63 8.03C5.67 8.19 5.71 8.35 5.75 8.49C5.83 8.79 5.94 9.11 6.06 9.44C5.88 9.32 4.85 8.61 3.82 7.87ZM20.58 6.58C20.2 7.21 19.41 7.67 18.84 8.06C18.09 8.57 16.99 9.33 16.67 9.54C16.75 9.35 16.81 9.16 16.87 8.98C16.96 8.73 17.06 8.43 17.13 8.11C17.31 7.27 17.34 6.53 17.34 6.53C17.34 6.53 17.71 6.63 17.93 6.39C18.16 6.14 18.24 5.39 18.45 5.03C18.78 4.47 19.45 3.89 20.44 4.59C21.02 5 21.04 5.84 20.58 6.58ZM10.87 14.25L11.89 14.23C11.89 14.23 11.91 15.34 12.07 16.17C12.23 17 12.45 17.92 12.45 17.92C12.45 17.92 10.38 18.61 10.39 17.86C10.4 17.12 10.71 15.66 10.71 15.66C10.71 15.66 10.9 13.93 10.87 14.25Z" fill="#FFA828" fill-opacity="1.000000" fill-rule="nonzero"/>
		<path id="Vector" d="M9.17 2.72C9.17 2.72 10.3 2.6 11.35 2.61C12.4 2.63 13.48 2.84 13.48 2.84C13.48 2.84 13.42 6.35 13.23 8.33C13.04 10.3 12.29 11.78 12.09 12.2C11.9 12.61 11.76 12.82 11.76 12.82L10.74 12.71L8.99 9.19L9.17 2.72Z" fill="#FFA828" fill-opacity="1.000000" fill-rule="nonzero"/>
		<path id="Vector" d="M7.81 3.25C7.81 3.25 8.13 3.09 8.59 2.92C9.01 2.76 9.39 2.71 9.39 2.71C9.39 2.71 9.4 5.04 9.44 6.71C9.47 8.12 10 10.45 10.25 11.07C10.5 11.69 10.97 12.64 10.97 12.64C10.97 12.64 10.04 12.51 9.47 11.78C9.17 11.4 7.77 8.46 7.72 6.51C7.67 4.57 7.86 3.2 7.81 3.25Z" fill="#FFEFAB" fill-opacity="1.000000" fill-rule="nonzero"/>
		<path id="Vector" d="M7.29 3.52C7.25 3.62 7 5.62 7.4 7.48C7.79 9.35 8.38 10.62 8.77 11.12C9.12 11.57 9.34 11.78 9.47 11.78C9.59 11.78 8.94 10.24 8.64 9.03C8.34 7.82 8.18 6.37 8.15 5.66C8.11 4.94 8.08 3.09 8.08 3.09C8.08 3.09 7.73 3.25 7.65 3.3C7.57 3.35 7.29 3.52 7.29 3.52Z" fill="#FFFCFD" fill-opacity="1.000000" fill-rule="nonzero"/>
		<path id="Vector" d="M9.58 17.79C9.58 17.79 10.26 16.67 10.41 15.83C10.55 14.98 10.63 14.24 10.63 14.24L11.05 14.25C11.05 14.25 11.01 15.48 10.96 16.31C10.91 17.13 10.77 17.95 10.77 17.95L9.58 17.79Z" fill="#FFEFAB" fill-opacity="1.000000" fill-rule="nonzero"/>
		<path id="Vector" d="M10.11 13.55C10.11 13.55 10.42 13.23 11.3 13.23C12.17 13.23 12.55 13.57 12.55 13.57L12.57 14.65C12.57 14.65 11.99 14.47 11.28 14.46C10.69 14.45 10.06 14.67 10.06 14.67L10.11 13.55ZM6.28 2.82C6.43 2.68 7.84 1.62 11.19 1.59C14.79 1.56 16.14 2.6 16.22 2.66C16.32 2.72 16.43 3.01 16.38 3.14C16.33 3.27 16.24 3.31 15.97 3.2C15.69 3.09 14.36 2.12 11.14 2.22C8.05 2.31 6.74 3.25 6.6 3.33C6.49 3.39 6.29 3.41 6.19 3.28C6.09 3.16 6.19 2.91 6.28 2.82ZM16.38 3.57C15.97 3.6 16.25 6.93 15.38 9.01C14.44 11.24 13.24 11.88 13.29 12.01C13.34 12.13 14.51 11.78 15.25 10.73C15.93 9.76 16.35 8.9 16.54 7.76C16.73 6.61 16.84 3.53 16.38 3.57ZM6.2 3.95C6.09 3.94 6.2 5.6 6.03 6.33C5.97 6.61 5.81 6.67 5.79 6.74C5.77 6.8 6.14 8.93 6.75 9.87C7.33 10.78 8.5 11.91 8.69 11.72C8.88 11.53 7.84 10.89 7.15 9.51C6.74 8.71 6.33 7.52 6.32 6.15C6.31 5.24 6.42 3.96 6.2 3.95Z" fill="#D1701C" fill-opacity="1.000000" fill-rule="nonzero"/>
		<path id="Vector" d="M15.59 20.25L15.58 17.68L7.34 17.68C7.37 17.68 7.35 19.77 7.34 20.26L6.17 20.26L6.17 22.12L16.64 22.12L16.64 20.26L15.59 20.25Z" fill="#865C50" fill-opacity="1.000000" fill-rule="nonzero"/>
		<path id="Vector" d="M9.99 19.03C9.78 19.02 9.55 19.06 9.54 19.31C9.53 19.56 9.53 20.29 9.53 20.43C9.53 20.57 9.64 20.69 9.93 20.7C10.21 20.71 12.88 20.7 13.06 20.7C13.25 20.7 13.35 20.54 13.35 20.38C13.36 20.21 13.34 19.53 13.34 19.35C13.34 19.04 13.07 19.04 12.88 19.04C12.68 19.04 9.99 19.03 9.99 19.03Z" fill="#FCC219" fill-opacity="1.000000" fill-rule="nonzero"/>
	</g>
</svg>
